!!!SOCIAL_FUNCTION:	songs connected with the treatment of the sick
!!!PDT:	1957
!!!OTL: No_20_Song_Addressed_to_Medicine_Bowl.krn
!!!LING_GROUP: Keresan
!!!LANG: Tone
!!!REG: Southwest
**kern
*staff1
=1-
*clefF4
*k[f#]
*M2/4
4r
8.r
16d\
=2
4d\
12e\L
12d\
12d\J
=3
4d\
12e\L
12d\
12d\J
=4!|:
8d\L
8c\J
8d\L
8A\J
=5
4G\
4G\
=6
8A\L
8c\J
8B\L
8A\J
=7
4F#\
4A\
=8
4G\
4G\
=9
8E\L
8D\J
8D\
8r
=10
4G\
4G\
=11
8B\L
8A\J
4A\
=12
8d\L
8c\J
8d\L
8A\J
=13
4G\
4G\
=14
8A\L
8c\J
8B\L
8A\J
=15
4F#\
4A\
=16
4G\
4G\
=17
4d\
4d\
=18
8d\L
8c\J
4d\
=19:|!
8E\L
8D\J
8D\
8r
==
*-
